!!!OTL: Tanzlied
!!!ARE: Europa, Mitteleuropa, Deutschland
!!!SCT: A0310A
!!!YEM: Copyright 1995, estate of Helmut Schaffrath.
**kern
*ICvox
*Ivox
*M4/2
*k[f#c#g#]
*A:
{2a
=1
2.gn
4gn
2.a
4a
=2
1b
2.b}
{4b
=3
2.b
4b
2.ccn
4ccn
=4
1b
2a}
{2a
=5
2.gn
4gn
2.a
4a
=6
1b
2.b}
{4b
=7
2.b
4b
2.ccn
4ccn
=8
1b
1a}
=9
{1a
1ee
=10
2.dd
4ccn
2.b
4b
=11
1ccn
2.b}
{4b
=12
2.a
4a
2.b
4b
=13
1e}
{1b
=14
2.dd
4dd
2.ccn
4b
=15
1.a}
==
!!!AGN: Romanze, Ballade, Lied
!! Souterliedekens 1540 ad Ps. 133
!!!ONB: ESAC (Essen Associative Code) Database: ALTDEU
!!!AMT: simple quadruple
!!!AIN: vox
!!!EED: Helmut Schaffrath
!!!EEV: 1.0
*-
